src/assets/dark/AccountError.svg

<svg width="270" height="181" viewBox="0 0 270 181" fill="none" xmlns="http://www.w3.org/2000/svg">
<ellipse cx="135.001" cy="90.4982" rx="134.637" ry="89.9982" fill="url(#paint0_linear)"/>
<mask id="mask0" mask-type="alpha" maskUnits="userSpaceOnUse" x="0" y="0" width="270" height="181">
<ellipse cx="135.001" cy="90.4982" rx="134.637" ry="89.9982" fill="url(#paint1_linear)"/>
</mask>
<g mask="url(#mask0)">
</g>
<path d="M194.727 44.4801L198.34 48.19C198.395 48.2443 198.48 48.2473 198.538 48.2006L202.523 44.8904C202.627 44.8082 202.778 44.8929 202.754 45.0191L202.107 50.1583C202.099 50.2323 202.146 50.306 202.22 50.3203L207.295 51.3675C207.421 51.392 207.455 51.5646 207.345 51.6331L202.922 54.3281C202.862 54.3693 202.834 54.4487 202.868 54.5149L205.212 59.1298C205.267 59.2453 205.161 59.3766 205.032 59.3307L200.166 57.552C200.095 57.5272 200.015 57.5605 199.988 57.6266L197.836 62.3396C197.785 62.4546 197.612 62.4496 197.567 62.3268L195.924 57.4183C195.9 57.3447 195.823 57.3062 195.754 57.3255L190.73 58.5849C190.604 58.615 190.499 58.4788 190.576 58.3628L193.389 54.0139C193.433 53.9503 193.41 53.8662 193.352 53.8197L189.237 50.6738C189.132 50.5922 189.179 50.4276 189.308 50.4189L194.463 49.9033C194.536 49.8949 194.597 49.8311 194.594 49.755L194.494 44.9157C194.497 44.6922 194.568 44.3176 194.727 44.4801Z" fill="#4C499C"/>
<path d="M99.9773 83.5292L100.767 88.6477C100.78 88.7237 100.848 88.7756 100.922 88.771L106.088 88.3881C106.221 88.3816 106.295 88.5384 106.202 88.627L102.692 92.4367C102.643 92.4925 102.638 92.5798 102.69 92.6341L106.215 96.4323C106.304 96.5254 106.231 96.6856 106.102 96.6776L100.936 96.3054C100.863 96.3041 100.794 96.3525 100.784 96.4262L100.014 101.545C99.9916 101.671 99.829 101.716 99.7509 101.604L96.817 97.3337C96.7731 97.272 96.6891 97.2529 96.6287 97.291L92.1411 99.8803C92.0323 99.9439 91.8945 99.8396 91.9292 99.7135L93.4403 94.7629C93.4632 94.6889 93.4226 94.6127 93.355 94.5883L88.5329 92.6982C88.413 92.6497 88.4063 92.4776 88.5363 92.4279L93.351 90.5188C93.4239 90.4927 93.4545 90.4113 93.4342 90.3397L91.909 85.3896C91.8709 85.2622 92.0047 85.1555 92.1143 85.2229L96.6114 87.7947C96.6763 87.8307 96.7624 87.8137 96.8042 87.7501L99.5312 83.751C99.6698 83.5692 99.9457 83.3058 99.9773 83.5292Z" fill="#4C499C"/>
<path d="M245.001 96.9936L246.902 101.811C246.931 101.882 247.009 101.918 247.08 101.897L252.034 100.382C252.162 100.347 252.269 100.483 252.197 100.59L249.616 105.081C249.581 105.147 249.595 105.233 249.658 105.274L253.935 108.2C254.042 108.271 254.006 108.443 253.878 108.464L248.758 109.242C248.687 109.257 248.63 109.32 248.636 109.394L249.016 114.556C249.022 114.684 248.874 114.764 248.773 114.672L244.968 111.155C244.912 111.105 244.825 111.105 244.775 111.155L240.97 114.672C240.878 114.758 240.721 114.687 240.727 114.556L241.107 109.394C241.113 109.317 241.056 109.251 240.985 109.242L235.865 108.464C235.737 108.443 235.692 108.277 235.808 108.2L240.082 105.274C240.148 105.233 240.159 105.147 240.124 105.081L237.543 100.59C237.477 100.475 237.584 100.341 237.706 100.382L242.66 101.897C242.732 101.918 242.812 101.882 242.838 101.811L244.615 97.3084C244.71 97.0975 244.918 96.7827 245.001 96.9936Z" fill="#4C499C"/>
<path d="M44.8347 118.591L46.7356 123.409C46.7653 123.48 46.8425 123.516 46.9138 123.495L51.8679 121.98C51.9957 121.945 52.1026 122.081 52.0313 122.188L49.4503 126.679C49.4146 126.744 49.4295 126.83 49.4918 126.872L53.7688 129.798C53.8758 129.869 53.8401 130.041 53.7124 130.062L48.5919 130.84C48.5206 130.855 48.4642 130.917 48.4701 130.992L48.8503 136.154C48.8562 136.281 48.7077 136.361 48.6068 136.269L44.802 132.753C44.7456 132.702 44.6595 132.702 44.609 132.753L40.8042 136.269C40.7122 136.356 40.5547 136.284 40.5607 136.154L40.9409 130.992C40.9468 130.914 40.8904 130.849 40.8191 130.84L35.6986 130.062C35.5709 130.041 35.5263 129.875 35.6422 129.798L39.9162 126.872C39.9815 126.83 39.9934 126.744 39.9577 126.679L37.3767 122.188C37.3114 122.072 37.4183 121.939 37.5401 121.98L42.4942 123.495C42.5655 123.516 42.6457 123.48 42.6724 123.409L44.4486 118.906C44.5436 118.695 44.7515 118.38 44.8347 118.591Z" fill="#4C499C"/>
<path d="M77.6609 43.5586L79.4519 47.1851L83.4646 47.7762L80.5687 50.5978L81.2459 54.5896L77.6609 52.7006L74.076 54.5896L74.7621 50.5978L71.8662 47.7762L75.8699 47.1851L77.6609 43.5586Z" fill="#4C499C"/>
<path d="M168.573 109.631L170.364 113.257L174.377 113.848L171.481 116.67L172.158 120.662L168.573 118.773L164.988 120.662L165.674 116.67L162.778 113.848L166.782 113.257L168.573 109.631Z" fill="#4C499C"/>
<path d="M114.562 130.793L116.353 134.419L120.366 135.011L117.47 137.832L118.147 141.824L114.562 139.935L110.977 141.824L111.663 137.832L108.768 135.011L112.771 134.419L114.562 130.793Z" fill="#4C499C"/>
<path d="M73.9178 100.664L75.7087 104.291L79.7214 104.882L76.8255 107.703L77.5027 111.695L73.9178 109.806L70.3328 111.695L71.0189 107.703L68.123 104.882L72.1268 104.291L73.9178 100.664Z" fill="#4C499C"/>
<path d="M34.8612 71.2637L36.0552 73.6814L38.7283 74.0734L36.7977 75.9535L37.2491 78.6118L34.8612 77.3554L32.4732 78.6147L32.9306 75.9565L31 74.0734L33.6672 73.6814L34.8612 71.2637Z" fill="#4C499C"/>
<path d="M89.0809 117.877L90.2749 120.295L92.948 120.687L91.0174 122.567L91.4689 125.225L89.0809 123.966L86.6929 125.225L87.1503 122.567L85.2197 120.687L87.8869 120.295L89.0809 117.877Z" fill="#4C499C"/>
<path d="M138.633 31L139.827 33.4177L142.5 33.8097L140.569 35.6898L141.021 38.3481L138.633 37.0888L136.245 38.3481L136.702 35.6898L134.771 33.8097L137.439 33.4177L138.633 31Z" fill="#4C499C"/>
<path d="M169.47 87.4609L170.664 89.8786L173.337 90.2707L171.406 92.1508L171.858 94.809L169.47 93.5497L167.082 94.809L167.539 92.1508L165.608 90.2707L168.276 89.8786L169.47 87.4609Z" fill="#4C499C"/>
<path d="M193.555 60.8633L172.405 87.5998" stroke="#4C499C" stroke-width="0.75" stroke-miterlimit="10" stroke-linecap="round" stroke-linejoin="round"/>
<path d="M118 91H107" stroke="#4C499C" stroke-miterlimit="10" stroke-linecap="round" stroke-linejoin="round" stroke-dasharray="2 3"/>
<path d="M164 92L152 92" stroke="#4C499C" stroke-miterlimit="10" stroke-linecap="round" stroke-linejoin="round" stroke-dasharray="2 3"/>
<path d="M95.6556 82.1874L83.5 52" stroke="#4C499C" stroke-width="0.75" stroke-miterlimit="10" stroke-linecap="round" stroke-linejoin="round"/>
<path d="M71.5 52.5L39 72" stroke="#4C499C" stroke-width="0.75" stroke-miterlimit="10" stroke-linecap="round" stroke-linejoin="round"/>
<path d="M66.8192 111.471L54.707 120.571" stroke="#4C499C" stroke-width="0.75" stroke-miterlimit="10" stroke-linecap="round" stroke-linejoin="round"/>
<path d="M107.404 133.852L94.2617 123.215" stroke="#4C499C" stroke-width="0.75" stroke-miterlimit="10" stroke-linecap="round" stroke-linejoin="round"/>
<path d="M86.7044 118.521L79.7246 110.211" stroke="#4C499C" stroke-width="0.75" stroke-miterlimit="10" stroke-linecap="round" stroke-linejoin="round"/>
<path d="M103.34 99.543L114.25 128.214" stroke="#4C499C" stroke-width="0.75" stroke-miterlimit="10" stroke-linecap="round" stroke-linejoin="round"/>
<path d="M169.472 95.7402L168.663 107.717" stroke="#4C499C" stroke-width="0.75" stroke-miterlimit="10" stroke-linecap="round" stroke-linejoin="round"/>
<path d="M237 112.42L217.738 123.644L175.5 115.92" stroke="#4C499C" stroke-width="0.75" stroke-miterlimit="10" stroke-linecap="round" stroke-linejoin="round"/>
<path d="M163.082 118.031L118.411 132.241" stroke="#4C499C" stroke-width="0.75" stroke-miterlimit="10" stroke-linecap="round" stroke-linejoin="round"/>
<path d="M191.141 47.612L143.5 36.5" stroke="#4C499C" stroke-width="0.75" stroke-miterlimit="10" stroke-linecap="round" stroke-linejoin="round"/>
<path d="M135 104.246C142.593 104.246 148.748 98.0906 148.748 90.4979C148.748 82.9051 142.593 76.75 135 76.75C127.407 76.75 121.252 82.9051 121.252 90.4979C121.252 98.0906 127.407 104.246 135 104.246Z" fill="#5F5BC1"/>
<path d="M134.989 98.9459C134.444 98.9459 133.993 98.767 133.635 98.4092C133.278 98.0515 133.099 97.6159 133.099 97.1026C133.099 96.5893 133.278 96.1498 133.635 95.7843C133.993 95.4187 134.444 95.2359 134.989 95.2359C135.517 95.2359 135.969 95.4187 136.342 95.7843C136.715 96.1498 136.902 96.5893 136.902 97.1026C136.902 97.6004 136.715 98.032 136.342 98.3976C135.969 98.7631 135.517 98.9459 134.989 98.9459ZM134.289 94.1626L133.612 87.2793V82.0527H136.342V87.2793L135.689 94.1626H134.289Z" fill="white"/>
<defs>
<linearGradient id="paint0_linear" x1="345.076" y1="-26.2434" x2="41.6471" y2="288.913" gradientUnits="userSpaceOnUse">
<stop offset="0.000490735" stop-color="#1E1B6D"/>
<stop offset="1" stop-color="#373582"/>
</linearGradient>
<linearGradient id="paint1_linear" x1="135.002" y1="180.495" x2="135.002" y2="0.5" gradientUnits="userSpaceOnUse">
<stop offset="0.000490735" stop-color="#373582"/>
<stop offset="1" stop-color="#1A185D"/>
</linearGradient>
</defs>
</svg>

<svg width="270" height="181" fill="none" xmlns="http://www.w3.org/2000/svg"><ellipse cx="135.001" cy="90.498" rx="134.637" ry="89.998" fill="url(#paint0_linear)"/><mask id="a" maskUnits="userSpaceOnUse" x="0" y="0" width="270" height="181"><ellipse cx="135.001" cy="90.498" rx="134.637" ry="89.998" fill="url(#paint1_linear)"/></mask><path d="M194.727 44.48l3.613 3.71c.055.054.14.057.198.01l3.985-3.31c.104-.082.255.003.231.13l-.647 5.138c-.008.074.039.148.113.162l5.075 1.047c.126.025.16.198.05.266l-4.423 2.695c-.06.041-.088.12-.054.187l2.344 4.615c.055.115-.051.247-.18.2l-4.866-1.778c-.071-.025-.151.008-.178.075l-2.152 4.713c-.051.115-.224.11-.269-.013l-1.643-4.909a.14.14 0 00-.17-.093l-5.024 1.26a.144.144 0 01-.154-.222l2.813-4.35c.044-.063.021-.147-.037-.193l-4.115-3.146c-.105-.082-.058-.246.071-.255l5.155-.516a.147.147 0 00.131-.148l-.1-4.84c.003-.223.074-.597.233-.435zM99.977 83.53l.79 5.118a.148.148 0 00.155.123l5.166-.383c.133-.006.207.15.114.239l-3.51 3.81c-.049.056-.054.143-.002.197l3.525 3.798c.089.093.016.254-.113.246l-5.166-.373c-.073 0-.142.047-.152.121l-.77 5.119c-.022.126-.185.171-.263.059l-2.934-4.27c-.044-.062-.128-.081-.188-.043l-4.488 2.59c-.109.063-.247-.041-.212-.168l1.511-4.95a.141.141 0 00-.085-.175l-4.822-1.89a.144.144 0 01.003-.27l4.815-1.91c.073-.025.103-.107.083-.178l-1.525-4.95c-.038-.128.096-.234.205-.167l4.497 2.572a.147.147 0 00.193-.045l2.727-3.999c.139-.182.415-.445.446-.222zM245.001 96.994l1.901 4.817a.148.148 0 00.178.086l4.954-1.515c.128-.035.235.101.163.208l-2.581 4.491c-.035.066-.021.152.042.193l4.277 2.926c.107.071.071.243-.057.264l-5.12.778c-.071.015-.128.078-.122.152l.38 5.162c.006.128-.142.208-.243.116l-3.805-3.517c-.056-.05-.143-.05-.193 0l-3.805 3.517c-.092.086-.249.015-.243-.116l.38-5.162a.143.143 0 00-.122-.152l-5.12-.778a.144.144 0 01-.057-.264l4.274-2.926c.066-.041.077-.127.042-.193l-2.581-4.491c-.066-.115.041-.249.163-.208l4.954 1.515a.146.146 0 00.178-.086l1.777-4.503c.095-.21.303-.525.386-.314zM44.835 118.591l1.9 4.818c.03.071.108.107.179.086l4.954-1.515c.128-.035.235.101.163.208l-2.58 4.491c-.036.065-.022.151.04.193l4.278 2.926c.107.071.071.243-.057.264l-5.12.778c-.071.015-.128.077-.122.152l.38 5.162c.006.127-.142.207-.243.115l-3.805-3.516c-.056-.051-.142-.051-.193 0l-3.805 3.516c-.092.087-.25.015-.243-.115l.38-5.162a.142.142 0 00-.122-.152l-5.12-.778a.144.144 0 01-.057-.264l4.274-2.926c.066-.042.077-.128.042-.193l-2.581-4.491c-.066-.116.041-.249.163-.208l4.954 1.515a.147.147 0 00.178-.086l1.777-4.503c.095-.211.303-.526.386-.315zM77.66 43.559l1.792 3.626 4.013.591-2.896 2.822.677 3.992-3.585-1.89-3.585 1.89.686-3.992-2.896-2.822 4.004-.59 1.79-3.627zM168.573 109.631l1.791 3.626 4.013.591-2.896 2.822.677 3.992-3.585-1.889-3.585 1.889.686-3.992-2.896-2.822 4.004-.591 1.791-3.626zM114.562 130.793l1.791 3.626 4.013.592-2.896 2.821.677 3.992-3.585-1.889-3.585 1.889.686-3.992-2.895-2.821 4.003-.592 1.791-3.626zM73.918 100.664l1.79 3.627 4.013.591-2.895 2.821.677 3.992-3.585-1.889-3.585 1.889.686-3.992-2.896-2.821 4.004-.591 1.79-3.627zM34.861 71.264l1.194 2.417 2.673.392-1.93 1.88.451 2.659-2.388-1.257-2.388 1.26.458-2.658L31 74.073l2.667-.392 1.194-2.417zM89.08 117.877l1.195 2.418 2.673.392-1.93 1.88.45 2.658-2.387-1.259-2.388 1.259.457-2.658-1.93-1.88 2.667-.392 1.194-2.418zM138.633 31l1.194 2.418 2.673.392-1.931 1.88.452 2.658-2.388-1.26-2.388 1.26.457-2.658-1.931-1.88 2.668-.392L138.633 31zM169.47 87.46l1.194 2.419 2.673.392-1.931 1.88.452 2.658-2.388-1.26-2.388 1.26.457-2.658-1.931-1.88 2.668-.392 1.194-2.418z" fill="#4C499C"/><path d="M193.555 60.863L172.405 87.6" stroke="#4C499C" stroke-width=".75" stroke-miterlimit="10" stroke-linecap="round" stroke-linejoin="round"/><path d="M118 91h-11M164 92h-12" stroke="#4C499C" stroke-miterlimit="10" stroke-linecap="round" stroke-linejoin="round" stroke-dasharray="2 3"/><path d="M95.656 82.187L83.5 52M71.5 52.5L39 72M66.82 111.471l-12.113 9.1M107.404 133.852l-13.142-10.637M86.704 118.521l-6.98-8.31M103.34 99.543l10.91 28.671M169.472 95.74l-.809 11.977M237 112.42l-19.262 11.224-42.238-7.724M163.082 118.031l-44.671 14.21M191.141 47.612L143.5 36.5" stroke="#4C499C" stroke-width=".75" stroke-miterlimit="10" stroke-linecap="round" stroke-linejoin="round"/><path d="M135 104.246c7.593 0 13.748-6.155 13.748-13.748 0-7.593-6.155-13.748-13.748-13.748-7.593 0-13.748 6.155-13.748 13.748 0 7.593 6.155 13.748 13.748 13.748z" fill="#5F5BC1"/><path d="M134.989 98.946c-.545 0-.996-.179-1.354-.537a1.78 1.78 0 01-.536-1.306c0-.514.179-.953.536-1.319.358-.365.809-.548 1.354-.548.528 0 .98.183 1.353.548.373.366.56.805.56 1.319 0 .497-.187.929-.56 1.295a1.864 1.864 0 01-1.353.548zm-.7-4.783l-.677-6.884v-5.226h2.73v5.226l-.653 6.884h-1.4z" fill="#fff"/><defs><linearGradient id="paint0_linear" x1="345.076" y1="-26.243" x2="41.647" y2="288.913" gradientUnits="userSpaceOnUse"><stop offset="0" stop-color="#1E1B6D"/><stop offset="1" stop-color="#373582"/></linearGradient><linearGradient id="paint1_linear" x1="135.002" y1="180.495" x2="135.002" y2=".5" gradientUnits="userSpaceOnUse"><stop offset="0" stop-color="#373582"/><stop offset="1" stop-color="#1A185D"/></linearGradient></defs></svg>
